lib/functional/health&wellness/heartbeat.svg

<svg xmlns="http://www.w3.org/2000/svg" fill="none" stroke="currentColor" aria-hidden="true" viewBox="0 0 32 32"><g id="Icon-Heartbeat"><g clip-path="url(#clip0_12_4262)"><g id="size=md (32px)"><g id="Heartbeat"><path id="Vector" stroke-linecap="round" stroke-linejoin="round" stroke-width="2" d="M4 16H9L11 13L15 19L17 16H20"/><path id="Vector_2" stroke-linecap="round" stroke-linejoin="round" stroke-width="2" d="M3.5125 12C3.5 11.8375 3.5 11.6625 3.5 11.5C3.5 9.99737 4.02062 8.54114 4.97328 7.37908C5.92593 6.21703 7.25178 5.42093 8.72525 5.12624C10.1987 4.83154 11.7288 5.05646 13.0551 5.76272C14.3814 6.46898 15.4221 7.61296 16 9.00001V9.00001C16.5779 7.61296 17.6186 6.46898 18.9449 5.76272C20.2712 5.05646 21.8013 4.83154 23.2748 5.12624C24.7482 5.42093 26.0741 6.21703 27.0267 7.37908C27.9794 8.54114 28.5 9.99737 28.5 11.5C28.5 20 16 27 16 27C16 27 11.0125 24.2 7.3375 20"/></g></g></g></g><defs><clipPath id="clip0_12_4262"><rect width="32" height="32" fill="white" rx="5"/></clipPath></defs></svg>

<svg xmlns="http://www.w3.org/2000/svg" fill="none" stroke="currentColor" aria-hidden="true" viewBox="0 0 32 32"><g stroke="#101828" stroke-linecap="round" stroke-linejoin="round" stroke-width="2" clip-path="url(#a)"><path d="M4 16h5l2-3 4 6 2-3h3"/><path d="M3.513 12c-.013-.162-.013-.338-.013-.5A6.5 6.5 0 0 1 16 9v0a6.5 6.5 0 0 1 12.5 2.5C28.5 20 16 27 16 27s-4.988-2.8-8.662-7"/></g><defs><clipPath id="a"><rect width="32" height="32" fill="#fff" rx="5"/></clipPath></defs></svg>
